X:644
T: Lianbing ge
N: C2168
O: China,Hubei Yunmeng
S: I, 426]
R: Xiaodiao]
M: 2/4
L: 1/16
K: A
B4e4 | B4e4 | c3BA2F2 | B4B2z2 |
B3ce2c2 | B4z4 |
c6B2 | c4e4 | E6F2 | A8 |
B6A2 | B3AF2A2 | E8 | F2E2A2F2 | E4z4

@@@ Tune index: 7199
